img/pic-2.svg

<svg width="73" height="100" viewBox="0 0 73 100" fill="none" xmlns="http://www.w3.org/2000/svg">
<path d="M36.815 72.6255C56.7682 72.6255 72.9434 56.4439 72.9434 36.4829C72.9434 16.5219 56.7682 0.340332 36.815 0.340332C16.8619 0.340332 0.686707 16.5219 0.686707 36.4829C0.686707 56.4439 16.8619 72.6255 36.815 72.6255Z" fill="#FFCC00"/>
<path d="M20.5574 68.1052H53.073L50.0588 86.1977C49.7133 88.2712 47.922 89.7908 45.8233 89.7908H27.8072C25.7084 89.7908 23.9171 88.2711 23.5717 86.1977L20.5574 68.1052Z" fill="#FFCC00"/>
<path d="M53.3735 82.0885L20.7933 83.8122" stroke="#082C4E" stroke-width="2" stroke-miterlimit="10" stroke-linecap="round" stroke-linejoin="round"/>
<path d="M53.3953 77.1873L20.7703 77.4194" stroke="#082C4E" stroke-width="2" stroke-miterlimit="10" stroke-linecap="round" stroke-linejoin="round"/>
</svg>

<svg width="73" height="100" fill="none" xmlns="http://www.w3.org/2000/svg"><path d="M36.815 72.626c19.953 0 36.128-16.182 36.128-36.143C72.943 16.522 56.768.34 36.815.34S.687 16.522.687 36.483c0 19.96 16.175 36.143 36.128 36.143Z" fill="#FC0"/><path d="M20.557 68.105h32.516l-3.014 18.093a4.296 4.296 0 0 1-4.236 3.593H27.807a4.296 4.296 0 0 1-4.235-3.593l-3.015-18.093Z" fill="#FC0"/><path d="m53.373 82.088-32.58 1.724M53.395 77.187l-32.625.232" stroke="#082C4E" stroke-width="2" stroke-miterlimit="10" stroke-linecap="round" stroke-linejoin="round"/></svg>
